X: 117
T:Mulvihill's
M:6/8
L:1/8
R:slow double jig
S:as played by Matt Molloy in "Shadows on Stone"
N:Posted to the woodenflute mailing list February 2003
Z:James T Peeples
K:Bmin
B2c|d>cB cBA|{c}BAF ~F3|def ecA|cBA ~B3|
dzd cBA|B/c/dc BFE|DFE ~F2E|F>BA ~B3|
dzd cBA|{c}BAF FBc|dcB ecA|cBB ~B3|
dzd cBA|B/c/dc BFE|DFE ~F2E|FBB B3||
dcd ede|{fg}fed {Bc}BAB|dzd efe{fe}|dBc d3|
fdf ece|dcB cBA|BAF ~F2E| FBB B3|
dcd ~e3|{fg}fed {Bc}BAB|[Dd]z[Dd] efe{fe}| dBc d2e|
f/e/d/e/f ece|dzB cBF|{c}BAF ~F2E| F>BB B3|]
